X:2
T:Krivo sadovsko horo
R:krivo sadovsko horo
H:Parts B and C played together and repeated.
Z:id:hn-miscbalkan-2
M:2+2+2+3+2+2/16
L:1/16
Q:2/16=220
K:Ephr ^g
E2EF GA BcA BBB2 | BdcB A2 cBA BBB2 | E2EF GA BcA BBB2 | GBAG F2 AGF EEE2 :|
|: GBAG F2 AGF EFGG | GBAG F2 AGF EEE2 :|
|: BdcB A2 cBA GABB | BdcB A2 cBA GGG2 :| !fine!
|: dee2 e2 e2d dcd2 | cdd2 d2 d2c cBc2 | Bcc2 c2 c2B BAB2 | GABB Bd cBA BBB2 |
[Q:2/16=140] eff2 f2 f2e ede2 | [Q:2/16=180]dee2 e2 e2d dcd2 |
[Q:2/16=220]GABB Bd cBA BBB2 | GBAG F2 AGF EEE2 :|
|: BdcB A2 cBA GABB | BdcB A2 cBA GGG2 | BdcB A2 cBA GABB | BdcB A2 cBA GGG2 :|
|: dee^c d2 dcB edcB | ^ABB2 G2 d^cB cAB2 | dee^c d2 dcB edcB | ^ABB2 G2 d^cB B4 :|
|: ^ABBE G2 d^cB cAB2 | ^ABBE G2 d^cB cAB2 | ^ABBE G2 d^cB cAB2 | ^ABBE G2 d^cB cAB2 :|
K:Amix _B
|: GAAG AE dcB AGA2 | GAAG AE dcB AEA2 | GAAG AE dcB AGA2 | GAAG AE dcB A4 :|
|: GAAG A2 dcA d2c2 | GAAG A2 =c=BG c2B2 | GAAG A2 dcA d2c2 | GAAG AE dcB A4 :|
K:Amix
|: Bcc2 A2 B2A ABc2 | Bcc2 A2 B2A cBA2 :|
|: Bcc2 c2 d2c fedc | Bcc2 A2 B2A ABc2 | Bcc2 c2 d2c fedc | Bcc2 A2 B2A cBA2 :|
|: Bcc2 A2 B2A ABc2 | Bcc2 A2 B2A cBA2 | Bcc2 A2 B2A ABc2 | Bcc2 A2 B2A cBA2 :|

